svgs/solid/bridge.svg

<svg xmlns="http://www.w3.org/2000/svg" viewBox="0 0 576 512"><!--! Font Awesome Free 6.6.0 by @fontawesome - https://fontawesome.com License - https://fontawesome.com/license/free (Icons: CC BY 4.0, Fonts: SIL OFL 1.1, Code: MIT License) Copyright 2024 Fonticons, Inc. --><path d="M32 32C14.3 32 0 46.3 0 64S14.3 96 32 96l40 0 0 64L0 160 0 288c53 0 96 43 96 96l0 64c0 17.7 14.3 32 32 32l32 0c17.7 0 32-14.3 32-32l0-64c0-53 43-96 96-96s96 43 96 96l0 64c0 17.7 14.3 32 32 32l32 0c17.7 0 32-14.3 32-32l0-64c0-53 43-96 96-96l0-128-72 0 0-64 40 0c17.7 0 32-14.3 32-32s-14.3-32-32-32L32 32zM456 96l0 64-80 0 0-64 80 0zM328 96l0 64-80 0 0-64 80 0zM200 96l0 64-80 0 0-64 80 0z"/></svg>

<svg xmlns="http://www.w3.org/2000/svg" viewBox="0 0 576 512"><!--! Font Awesome Free 6.5.2 by @fontawesome - https://fontawesome.com License - https://fontawesome.com/license/free (Icons: CC BY 4.0, Fonts: SIL OFL 1.1, Code: MIT License) Copyright 2024 Fonticons, Inc. --><path d="M32 32C14.3 32 0 46.3 0 64S14.3 96 32 96H72v64H0V288c53 0 96 43 96 96v64c0 17.7 14.3 32 32 32h32c17.7 0 32-14.3 32-32V384c0-53 43-96 96-96s96 43 96 96v64c0 17.7 14.3 32 32 32h32c17.7 0 32-14.3 32-32V384c0-53 43-96 96-96V160H504V96h40c17.7 0 32-14.3 32-32s-14.3-32-32-32H32zM456 96v64H376V96h80zM328 96v64H248V96h80zM200 96v64H120V96h80z"/></svg>
